icons-rebrand/svg/battery-medium-bold.svg

<svg width="32" height="32" viewBox="0 0 32 32" fill="none" xmlns="http://www.w3.org/2000/svg">
<path d="M18 10.0129C17.8686 10.0125 17.7384 10.0381 17.6169 10.0882C17.4953 10.1383 17.385 10.212 17.292 10.3049C17.1991 10.3979 17.1254 10.5083 17.0753 10.6298C17.0252 10.7513 16.9996 10.8815 17 11.0129V21.0129C17 21.2781 17.1054 21.5325 17.2929 21.72C17.4804 21.9076 17.7348 22.0129 18 22.0129C18.2652 22.0129 18.5196 21.9076 18.7071 21.72C18.8946 21.5325 19 21.2781 19 21.0129V11.0129C18.9995 10.7479 18.894 10.4938 18.7065 10.3064C18.5191 10.119 18.2651 10.0134 18 10.0129ZM22.617 10.0889C22.7996 10.0127 23.0008 9.99251 23.1949 10.031C23.389 10.0694 23.5673 10.1648 23.707 10.3049C23.8 10.3979 23.8737 10.5083 23.924 10.6297C23.9743 10.7512 24.0001 10.8814 24 11.0129V21.0129C24 21.2781 23.8946 21.5325 23.7071 21.72C23.5196 21.9076 23.2652 22.0129 23 22.0129C22.7348 22.0129 22.4804 21.9076 22.2929 21.72C22.1054 21.5325 22 21.2781 22 21.0129V11.0129C22 10.8151 22.0585 10.6218 22.1684 10.4573C22.2782 10.2929 22.4343 10.1647 22.617 10.0889Z" fill="#0F0F0F"/>
<path fill-rule="evenodd" clip-rule="evenodd" d="M11 6H25C26.3256 6.00159 27.5964 6.52888 28.5338 7.46622C29.4711 8.40356 29.9984 9.67441 30 11V21C29.9984 22.3256 29.4711 23.5964 28.5338 24.5338C27.5964 25.4711 26.3256 25.9984 25 26H11C9.67432 25.9987 8.40332 25.4715 7.46593 24.5341C6.52853 23.5967 6.00132 22.3257 6 21V20H5C4.20459 19.9992 3.44199 19.6829 2.87956 19.1204C2.31712 18.558 2.00079 17.7954 2 17V15C2.00079 14.2046 2.31712 13.442 2.87956 12.8796C3.44199 12.3171 4.20459 12.0008 5 12H6V11C6.00159 9.67441 6.52888 8.40356 7.46622 7.46622C8.40356 6.52888 9.67441 6.00159 11 6ZM5 18H6V14H5C4.73478 14 4.48043 14.1054 4.29289 14.2929C4.10536 14.4804 4 14.7348 4 15V17C4 17.2652 4.10536 17.5196 4.29289 17.7071C4.48043 17.8946 4.73478 18 5 18ZM27.12 23.12C27.6824 22.5577 27.9989 21.7953 28 21V11C27.9989 10.2047 27.6825 9.44223 27.1202 8.87985C26.5578 8.31747 25.7953 8.00106 25 8H11C10.2046 8.00079 9.44199 8.31712 8.87956 8.87956C8.31712 9.44199 8.00079 10.2046 8 11V21C8.00079 21.7954 8.31712 22.558 8.87956 23.1204C9.44199 23.6829 10.2046 23.9992 11 24H25C25.795 24 26.558 23.683 27.12 23.12Z" fill="#0F0F0F"/>
</svg>

<svg width="32" height="32" viewBox="0 0 32 32" fill="none" xmlns="http://www.w3.org/2000/svg"><path d="M18 10.013a.997.997 0 0 0-1 1v10a1 1 0 1 0 2 0v-10a1.002 1.002 0 0 0-1-1zM22.617 10.089a.997.997 0 0 1 1.09.216 1 1 0 0 1 .293.708v10a1 1 0 0 1-2 0v-10a1 1 0 0 1 .617-.924z" fill="#0F0F0F"/><path fill-rule="evenodd" clip-rule="evenodd" d="M11 6h14a5.006 5.006 0 0 1 5 5v10a5.006 5.006 0 0 1-5 5H11a5.005 5.005 0 0 1-5-5v-1H5a3.003 3.003 0 0 1-3-3v-2a3.003 3.003 0 0 1 3-3h1v-1a5.006 5.006 0 0 1 5-5zM5 18h1v-4H5a1 1 0 0 0-1 1v2a1 1 0 0 0 1 1zm22.12 5.12A3.004 3.004 0 0 0 28 21V11a3.004 3.004 0 0 0-3-3H11a3.003 3.003 0 0 0-3 3v10a3.003 3.003 0 0 0 3 3h14c.795 0 1.558-.317 2.12-.88z" fill="#0F0F0F"/></svg>
